X: 05037
T: IRENE'S JIG
C: Bob McQuillen 23 Jan 81
B: Bob's Note Book 5 #37
%R: jig
Z: 2021 John Chambers <jc:trillian.mit.edu>
M: 6/8
L: 1/8
K: D
f2e \
| dBd Ade | fdB AFE | DFA d2B | A3- A FA || GFG EFG | A2G E2d | cBA gfe | d2f Afe |
| dBd AFA | dfd AFE | DFA d2c | c3   Bef || gag gfe | afd AFA | Bcd e2f | d3 |]
[| F2G \
| AFA dBA | f2d AFG | AFA dcB | c2d e2B || ABA cBA | gfg e2B | ABA gfe | f2d AFG |
| AFA dBA | f2d ABA | FAF DFA | dcB B2A || Bcd edB | Adf a2f | gag f2e | d3 |]
%%begintext align
%% Irene Howard is
%% Cal's wife, and she, too is one of my favorite
%% people - I hope you like this tune, Irene!
%%endtext

%%sep 1 1 500

%%sep 1 1 500

